X:22
T:Calliope House
Z: id:dc-jig-165
M:6/8
L:1/8
K:D Major
A2B|d3 f2d|e2d fed|B2e e2d|e3 edB|!
ABA A2F|A2B d2e|fgf fed|e3 A2B|!
d3 f2d|e2d fed|B2e e2d|e3 edB|!
ABA A2F|A2B d2e|fgf efe|d3|]!
efg|a3 faa|eaa def|g3 fgf|efe edB|!
ABA A2F|A2B d2e|fgf fed|e3 efg|!
a3 faa|eaa def|g3 fgf|efe edB|!
ABA A2F|A2B d2e|fgf efe|d3|]!

